!! 00000] TT[WS
!!!OTL: Santian bujian meimei de mian
!!!ARE: Asia, China, Shanxi Hequ
!! Ethnic Group: Han
!! WII, 27 (2)
!!!SCT: J0436
!!!YEM: Copyright 1995, estate of Helmut Schaffrath.
**kern
*ICvox
*Ivox
*M2/4
*k[b-e-]
*B-:
{8fff
8ddd
8ccc
8fff
=1
8ccc
8gg
8ff
8dd
=2
8ff
8gg
8bb-
8dd
=3
2cc}
=4
{8fff
8ddd
8ccc
8fff
=5
8ccc
8gg
8ff
8dd
=6
8ff
8gg
8ff
8dd
=7
8ff
8gg
8ff
8dd
=8
8ff
8gg
4ccc
=9
16fff
16ccc
4.bb-
=10
8gg
4.ff}
==
!!!AGN: Shange, Shanqu. Qingge
!!!ONB: ESAC (Essen Associative Code) Database: CHINA
!!!AMT: simple duple
!!!AIN: vox
!!!EED: Helmut Schaffrath
!!!EEV: 1.0
*-
